packages/kaspersky-hexa-ui-icons/src/iconsSVGs/16/MailBox.svg

<svg width="16" height="16" viewBox="0 0 16 16" fill="none" xmlns="http://www.w3.org/2000/svg">
<path fill-rule="evenodd" clip-rule="evenodd" d="M4.6666 2.0166C3.20305 2.0166 2.0166 3.20305 2.0166 4.6666V11.3333C2.0166 12.7968 3.20305 13.9833 4.6666 13.9833H11.3333C12.7968 13.9833 13.9833 12.7968 13.9833 11.3333V4.6666C13.9833 3.20305 12.7968 2.0166 11.3333 2.0166H4.6666ZM12.6833 8.68329V4.6666C12.6833 3.92102 12.0789 3.3166 11.3333 3.3166H4.6666C3.92102 3.3166 3.3166 3.92102 3.3166 4.6666V8.68329H6.6666C7.02559 8.68329 7.3166 8.9743 7.3166 9.33329C7.3166 9.71068 7.62254 10.0166 7.99994 10.0166C8.37733 10.0166 8.68327 9.71068 8.68327 9.33329C8.68327 8.9743 8.97428 8.68329 9.33327 8.68329H12.6833ZM3.3166 9.98329H6.12557C6.39468 10.7594 7.13223 11.3166 7.99994 11.3166C8.86764 11.3166 9.6052 10.7594 9.8743 9.98329H12.6833V11.3333C12.6833 12.0789 12.0789 12.6833 11.3333 12.6833H4.6666C3.92102 12.6833 3.3166 12.0789 3.3166 11.3333V9.98329Z" fill="black"/>
</svg>

<svg xmlns="http://www.w3.org/2000/svg" width="16" height="16" fill="none" viewBox="0 0 16 16"><path fill="#000" fill-rule="evenodd" d="M4.6666 2.0167c-1.4635 0-2.65 1.1865-2.65 2.65v6.6667c0 1.4635 1.1865 2.65 2.65 2.65h6.6667c1.4635 0 2.65-1.1865 2.65-2.65V4.6667c0-1.4635-1.1865-2.65-2.65-2.65zm8.0167 6.6667V4.6667c0-.7456-.6044-1.35-1.35-1.35H4.6666c-.7456 0-1.35.6044-1.35 1.35v4.0167h3.35a.65.65 0 0 1 .65.65.6833.6833 0 1 0 1.3667 0 .65.65 0 0 1 .65-.65zm-9.3667 1.3h2.809c.269.7761 1.0066 1.3333 1.8743 1.3333s1.6053-.5572 1.8744-1.3333h2.809v1.35c0 .7456-.6044 1.35-1.35 1.35H4.6666c-.7456 0-1.35-.6044-1.35-1.35z"/></svg>
